X:1
T: Sprig of Shillalah
C:
R:Jig
Q:180
K:G
M:6/8
L:1/16
|:D2|D2G2G2 G2F2G2|A2B2A2 A2G2F2|G2B2d2 d2c2B2|A2c2B2 A2G2F2|
G2A2B2 E2F2G2|D2G2F2 G4G2|G2A2B2 E2F2G2|D2G2F2 G4:|
|:G2|B2G2B2 d2B2d2|e2c2e2 d4d2|B2G2B2 d2B2d2|e2c2e2 d4B2|
c2e2c2 B2d2B2|A2c2B2 A2G2F2|G2A2B2 E2F2G2|D2G2F2 G4:|
